dist/icons/svgs/camera-outline.svg

<svg xmlns="http://www.w3.org/2000/svg" width="24" height="24" fill="currentcolor" class="icon-camera-outline" viewBox="0 0 24 24">
  <path d="M9.77344 3.25H14.1875C15.1641 3.25 15.9844 3.875 16.2969 4.77344L16.6094 5.75H19.5C20.8672 5.75 22 6.88281 22 8.25V18.25C22 19.6562 20.8672 20.75 19.5 20.75H4.5C3.09375 20.75 2 19.6562 2 18.25V8.25C2 6.88281 3.09375 5.75 4.5 5.75H7.35156L7.70312 4.77344L8.5625 5.04688L7.70312 4.77344C7.97656 3.875 8.83594 3.25 9.77344 3.25ZM9.46094 5.35938L8.91406 7C8.79688 7.39062 8.44531 7.625 8.01562 7.625H4.5C4.14844 7.625 3.875 7.9375 3.875 8.25V18.25C3.875 18.6016 4.14844 18.875 4.5 18.875H19.5C19.8125 18.875 20.125 18.6016 20.125 18.25V8.25C20.125 7.9375 19.8125 7.625 19.5 7.625H15.9453C15.5156 7.625 15.1641 7.39062 15.0469 7L14.5 5.35938C14.4609 5.24219 14.3438 5.125 14.1875 5.125H9.77344C9.61719 5.125 9.5 5.24219 9.46094 5.35938ZM12 17.625C10.3984 17.625 8.99219 16.8047 8.21094 15.4375C7.39062 14.1094 7.39062 12.4297 8.21094 11.0625C8.99219 9.73438 10.3984 8.875 12 8.875C13.5625 8.875 14.9688 9.73438 15.75 11.0625C16.5703 12.4297 16.5703 14.1094 15.75 15.4375C14.9688 16.8047 13.5625 17.625 12 17.625ZM9.5 13.25C9.5 14.1484 9.96875 14.9688 10.75 15.4375C11.4922 15.8672 12.4688 15.8672 13.25 15.4375C13.9922 14.9688 14.5 14.1484 14.5 13.25C14.5 12.3906 13.9922 11.5703 13.25 11.1016C12.4688 10.6719 11.4922 10.6719 10.75 11.1016C9.96875 11.5703 9.5 12.3906 9.5 13.25Z"/>
</svg>

<svg xmlns="http://www.w3.org/2000/svg" width="24" height="24" fill="currentColor" class="icon-camera-outline" viewBox="0 0 24 24">
  <path d="M9.773 3.25h4.415c.976 0 1.796.625 2.109 1.523l.312.977H19.5c1.367 0 2.5 1.133 2.5 2.5v10c0 1.406-1.133 2.5-2.5 2.5h-15a2.47 2.47 0 0 1-2.5-2.5v-10c0-1.367 1.094-2.5 2.5-2.5h2.852l.351-.977.86.274-.86-.274a2.18 2.18 0 0 1 2.07-1.523m-.312 2.11L8.914 7c-.117.39-.469.625-.898.625H4.5a.64.64 0 0 0-.625.625v10c0 .352.273.625.625.625h15a.64.64 0 0 0 .625-.625v-10c0-.312-.312-.625-.625-.625h-3.555c-.43 0-.78-.234-.898-.625L14.5 5.36a.34.34 0 0 0-.312-.235H9.773a.34.34 0 0 0-.312.234M12 17.624c-1.602 0-3.008-.82-3.79-2.187-.82-1.329-.82-3.008 0-4.376.782-1.328 2.188-2.187 3.79-2.187 1.563 0 2.969.86 3.75 2.188.82 1.367.82 3.046 0 4.374a4.29 4.29 0 0 1-3.75 2.19M9.5 13.25a2.54 2.54 0 0 0 1.25 2.188c.742.43 1.719.43 2.5 0 .742-.47 1.25-1.29 1.25-2.188 0-.86-.508-1.68-1.25-2.148-.781-.43-1.758-.43-2.5 0-.781.468-1.25 1.289-1.25 2.148"/>
</svg>
